X:1
T: The Earl of Eglintoun
C:
R:Reel
Q: 232
K:Bb
M:4/4
L:1/8
|:B|FB d1/2c1/2B FB DB|FB d1/2c1/2B cC CB|FB d1/2c1/2B FB DF|E1/2F1/2G FE DB, B,B|
FB d1/2c1/2B FB DB|FB d1/2c1/2B cC CB|FB d1/2c1/2B FB DF|Ge dc dB Bf|
df Bf df bf|d1/2e1/2f Bd cF Fe|df Bf df bd|Fe dc dB Bf|
df Bf df bf|d1/2e1/2f Bd cF Ff|ge cg fd Bf|ec Fe dB B:|
